X:11862
T:no name
R:reel
S:Session Galway 1992
D:Sharon Shannon: Out the Gap
Z:id:hn-reel-433
M:C|
K:Ddor
D2DE F2~F2|FEDC DEFD|ECEF G2GF|GFGA GFDC|
D2DE F2AF|FEDC DEFD|E2EF G2GF|GAGF D2A,2:|
K:D
|:DEFA d2de|fded (3Bcd ef|g2eg fedB|AGFD EA,CE|
DEFA d2de|fded (3Bcd ef|g2bg fedB|1 AdcB AGFE:|2 AGFE D4||
